X: 02120
T: SHERILL'S COOKIE
C: Bob McQuillen Nov'75
B: Bob's Note Book 1&2 #120
%R: jig
Z: 2019 John Chambers <jc:trillian.mit.edu>
M: 6/8
L: 1/8
K: D
A \
| d2d cBc | def gfe | fga agf | gfg e2A |\
| d2d cBc | def gfe | fga agf | edc d2 :|
|: f \
| a2a fga | gfg efg | a2a bag | fed cde |\
| d2d A2d | e2f gfe | f2g agf | edc d2 :|
%%begintext align
%% For Sherill Anderson, Deer
%% Run North's M.V.P. You
%% really ought to taste _her_ Spaghetti!
%%endtext

%%sep 1 1 500

%%sep 1 1 500

